packages/ui-icons/svg/Solid/indent-2.svg

<svg viewBox="0 0 1920 1920" version="1.1" xmlns="http://www.w3.org/2000/svg">
    <path d="M1920,1518.81271 L1920,1744.69506 L112.941176,1744.69506 L112.941176,1518.81271 L1920,1518.81271 Z M1920,1066.93506 L1920,1292.93035 L112.941176,1292.93035 L112.941176,1066.93506 L1920,1066.93506 Z M282.375529,112.954824 L811.843765,502.376 L282.375529,891.684235 L282.375529,615.317176 L0.0225882353,615.317176 L0.0225882353,389.434824 L282.375529,389.434824 L282.375529,112.954824 Z M1920,615.283294 L1920,841.165647 L903.529412,841.165647 L903.529412,615.283294 L1920,615.283294 Z M1920,163.405647 L1920,389.400941 L903.529412,389.400941 L903.529412,163.405647 L1920,163.405647 Z" stroke="none" stroke-width="1" fill-rule="evenodd"/>
</svg>

<svg viewBox="0 0 1920 1920" xmlns="http://www.w3.org/2000/svg">
    <path d="M1920 1518.813v225.882H112.941v-225.882H1920Zm0-451.878v225.995H112.941v-225.995H1920ZM282.376 112.955l529.468 389.421-529.468 389.308V615.317H.023V389.435h282.353v-276.48ZM1920 615.283v225.883H903.53V615.283H1920Zm0-451.877V389.4H903.53V163.406H1920Z" fill-rule="evenodd"/>
</svg>
